.local/share/icons/Gruvbox-Plus-Dark/actions/16/edit-find.svg

<svg xmlns="http://www.w3.org/2000/svg" width="16" height="16" viewBox="0 0 16 16">
 <defs>
  <style id="current-color-scheme" type="text/css">
   .ColorScheme-Text { color:#ebdbb2; } .ColorScheme-Highlight { color:#458588; }
  </style>
 </defs>
 <path style="fill:currentColor" class="ColorScheme-Text" d="M 6.4902344 0.99609375 C 3.4613344 0.99609375 0.99023438 3.4706937 0.99023438 6.4960938 C 0.99023438 9.5214938 3.4613344 11.996094 6.4902344 11.996094 C 7.6422344 11.996094 8.7279444 11.638254 9.6152344 11.027344 L 13.302734 14.714844 A 1.0055 1.0055 0 1 0 14.708984 13.277344 L 11.021484 9.5898438 C 11.632274 8.7038438 12.021484 7.6459938 12.021484 6.4960938 C 12.021484 3.4706937 9.5190344 0.99609375 6.4902344 0.99609375 z M 6.4902344 2.9960938 C 8.4376344 2.9960938 9.9902344 4.5508938 9.9902344 6.4960938 C 9.9902344 8.4411937 8.4376344 9.9960938 6.4902344 9.9960938 C 4.5428344 9.9960938 2.9902344 8.4411937 2.9902344 6.4960938 C 2.9902344 4.5508938 4.5428344 2.9960938 6.4902344 2.9960938 z"/>
</svg>

<svg width="16" height="16" version="1.1" xmlns="http://www.w3.org/2000/svg">
  <defs>
    <style id="current-color-scheme" type="text/css">.ColorScheme-Text { color:#ebdbb2; } .ColorScheme-Highlight { color:#458588; }</style>
  </defs>
  <path class="ColorScheme-Text" d="m6.49 0.9961c-3.029 0-5.5 2.475-5.5 5.5s2.471 5.5 5.5 5.5c1.152 0 2.238-0.3578 3.125-0.9688l3.636 3.645c0.9589 0.9941 2.421-0.5017 1.406-1.438l-3.637-3.645c0.6108-0.886 1-1.944 1-3.094 0-3.025-2.502-5.5-5.531-5.5zm0 2c1.947 0 3.5 1.555 3.5 3.5s-1.553 3.5-3.5 3.5-3.5-1.555-3.5-3.5 1.553-3.5 3.5-3.5z" fill="currentColor"/>
</svg>
